cypex/img/main/info/info__item__3.svg

<svg width="368" height="222" viewBox="0 0 368 222" fill="none" xmlns="http://www.w3.org/2000/svg">
<g clip-path="url(#clip0_2_1048)">
<g filter="url(#filter0_d_2_1048)">
<rect x="134" y="69" width="98" height="98" fill="url(#paint0_linear_2_1048)" fill-opacity="0.1" shape-rendering="crispEdges"/>
<rect x="134.5" y="69.5" width="97" height="97" stroke="white" stroke-opacity="0.1" shape-rendering="crispEdges"/>
</g>
<rect x="99" y="158" width="4" height="4" fill="#E5FF5D"/>
<rect x="107" y="158" width="4" height="4" fill="white" fill-opacity="0.1"/>
<rect x="115" y="158" width="4" height="4" fill="#E5FF5D"/>
<rect x="99" y="166" width="4" height="4" fill="#E5FF5D"/>
<rect x="107" y="166" width="4" height="4" fill="white" fill-opacity="0.1"/>
<rect x="115" y="166" width="4" height="4" fill="white" fill-opacity="0.1"/>
<rect x="99" y="174" width="4" height="4" fill="#E5FF5D"/>
<rect x="107" y="174" width="4" height="4" fill="#E5FF5D"/>
<rect x="115" y="174" width="4" height="4" fill="white" fill-opacity="0.1"/>
<g opacity="0.2">
<path d="M191 116.5C191 120.642 187.418 124 183 124C178.582 124 175 120.642 175 116.5C175 112.358 178.582 109 183 109C187.418 109 191 112.358 191 116.5Z" fill="black"/>
<path d="M180.12 120.7C180.12 119.209 181.409 118 183 118C184.591 118 185.88 119.209 185.88 120.7V127.3C185.88 128.791 184.591 130 183 130C181.409 130 180.12 128.791 180.12 127.3V120.7Z" fill="black"/>
</g>
<rect x="167.5" y="52.5" width="31" height="31" rx="15.5" fill="#E5FF5D" stroke="#E5FF5D"/>
<path opacity="0.5" d="M153.66 22.18C153.052 22.18 152.524 22.068 152.076 21.844C151.632 21.62 151.288 21.318 151.044 20.938C150.804 20.558 150.684 20.132 150.684 19.66C150.684 19.152 150.82 18.726 151.092 18.382C151.368 18.038 151.752 17.77 152.244 17.578C151.908 17.446 151.612 17.222 151.356 16.906C151.1 16.59 150.972 16.192 150.972 15.712C150.972 15.272 151.088 14.88 151.32 14.536C151.552 14.188 151.872 13.916 152.28 13.72C152.688 13.52 153.154 13.42 153.678 13.42C154.21 13.42 154.68 13.52 155.088 13.72C155.5 13.92 155.822 14.194 156.054 14.542C156.29 14.886 156.408 15.276 156.408 15.712C156.408 16.192 156.28 16.59 156.024 16.906C155.768 17.222 155.47 17.446 155.13 17.578C155.594 17.77 155.966 18.04 156.246 18.388C156.526 18.732 156.666 19.156 156.666 19.66C156.666 20.132 156.542 20.558 156.294 20.938C156.046 21.318 155.696 21.62 155.244 21.844C154.796 22.068 154.268 22.18 153.66 22.18ZM153.69 17.098C154.174 17.098 154.572 16.978 154.884 16.738C155.196 16.494 155.352 16.166 155.352 15.754C155.352 15.346 155.198 15.004 154.89 14.728C154.586 14.452 154.186 14.314 153.69 14.314C153.194 14.314 152.792 14.452 152.484 14.728C152.176 15.004 152.022 15.346 152.022 15.754C152.022 16.166 152.178 16.494 152.49 16.738C152.802 16.978 153.202 17.098 153.69 17.098ZM153.678 21.214C154.01 21.214 154.318 21.156 154.602 21.04C154.89 20.92 155.12 20.742 155.292 20.506C155.468 20.27 155.556 19.978 155.556 19.63C155.556 19.114 155.374 18.72 155.01 18.448C154.646 18.176 154.202 18.04 153.678 18.04C153.134 18.04 152.684 18.178 152.328 18.454C151.972 18.726 151.794 19.118 151.794 19.63C151.794 19.978 151.88 20.27 152.052 20.506C152.224 20.742 152.452 20.92 152.736 21.04C153.024 21.156 153.338 21.214 153.678 21.214ZM158.979 22.18L158.583 21.292C159.439 21.2 160.161 20.98 160.749 20.632C161.341 20.284 161.807 19.858 162.147 19.354C162.491 18.846 162.721 18.31 162.837 17.746C162.613 18.078 162.319 18.344 161.955 18.544C161.595 18.74 161.197 18.838 160.761 18.838C160.237 18.838 159.763 18.724 159.339 18.496C158.915 18.268 158.579 17.952 158.331 17.548C158.087 17.144 157.965 16.68 157.965 16.156C157.965 15.64 158.093 15.176 158.349 14.764C158.609 14.352 158.967 14.026 159.423 13.786C159.879 13.542 160.401 13.42 160.989 13.42C161.597 13.42 162.137 13.552 162.609 13.816C163.085 14.08 163.457 14.464 163.725 14.968C163.997 15.468 164.133 16.078 164.133 16.798C164.133 17.514 164.003 18.176 163.743 18.784C163.487 19.388 163.127 19.926 162.663 20.398C162.199 20.866 161.653 21.252 161.025 21.556C160.401 21.86 159.719 22.068 158.979 22.18ZM160.989 17.884C161.349 17.884 161.673 17.808 161.961 17.656C162.253 17.504 162.483 17.296 162.651 17.032C162.819 16.768 162.903 16.47 162.903 16.138C162.903 15.634 162.723 15.22 162.363 14.896C162.007 14.568 161.549 14.404 160.989 14.404C160.433 14.404 159.975 14.568 159.615 14.896C159.255 15.22 159.075 15.634 159.075 16.138C159.075 16.47 159.159 16.768 159.327 17.032C159.499 17.296 159.729 17.504 160.017 17.656C160.305 17.808 160.629 17.884 160.989 17.884ZM166.344 22.18C166.108 22.18 165.908 22.106 165.744 21.958C165.58 21.81 165.498 21.616 165.498 21.376C165.498 21.136 165.58 20.942 165.744 20.794C165.908 20.646 166.108 20.572 166.344 20.572C166.576 20.572 166.774 20.646 166.938 20.794C167.106 20.942 167.19 21.136 167.19 21.376C167.19 21.616 167.106 21.81 166.938 21.958C166.774 22.106 166.576 22.18 166.344 22.18ZM169.51 22V14.764L167.248 15.604L166.954 14.734L170.482 13.42H170.566V22H169.51ZM176.408 22V20.224H172.166V19.354L175.292 13.6H176.468L173.366 19.264H176.408V17.326H177.404V19.264H178.754V20.224H177.404V22H176.408ZM180.723 22.18C180.487 22.18 180.287 22.106 180.123 21.958C179.959 21.81 179.877 21.616 179.877 21.376C179.877 21.136 179.959 20.942 180.123 20.794C180.287 20.646 180.487 20.572 180.723 20.572C180.955 20.572 181.153 20.646 181.317 20.794C181.485 20.942 181.569 21.136 181.569 21.376C181.569 21.616 181.485 21.81 181.317 21.958C181.153 22.106 180.955 22.18 180.723 22.18ZM183.889 22V14.764L181.627 15.604L181.333 14.734L184.861 13.42H184.945V22H183.889ZM187.072 22V21.154L188.902 19.468C189.486 18.932 189.96 18.466 190.324 18.07C190.688 17.67 190.956 17.306 191.128 16.978C191.3 16.646 191.386 16.312 191.386 15.976C191.386 15.488 191.216 15.104 190.876 14.824C190.54 14.544 190.074 14.404 189.478 14.404C189.106 14.404 188.748 14.466 188.404 14.59C188.064 14.714 187.778 14.894 187.546 15.13L187.12 14.302C187.788 13.714 188.618 13.42 189.61 13.42C190.174 13.42 190.668 13.522 191.092 13.726C191.52 13.926 191.854 14.212 192.094 14.584C192.334 14.952 192.454 15.386 192.454 15.886C192.454 16.234 192.384 16.584 192.244 16.936C192.104 17.288 191.854 17.684 191.494 18.124C191.138 18.56 190.632 19.084 189.976 19.696L188.536 21.022H192.664V22H187.072ZM194.961 22.18C194.725 22.18 194.525 22.106 194.361 21.958C194.197 21.81 194.115 21.616 194.115 21.376C194.115 21.136 194.197 20.942 194.361 20.794C194.525 20.646 194.725 20.572 194.961 20.572C195.193 20.572 195.391 20.646 195.555 20.794C195.723 20.942 195.807 21.136 195.807 21.376C195.807 21.616 195.723 21.81 195.555 21.958C195.391 22.106 195.193 22.18 194.961 22.18ZM198.127 22V14.764L195.865 15.604L195.571 14.734L199.099 13.42H199.183V22H198.127ZM201.311 22V21.154L203.141 19.468C203.725 18.932 204.199 18.466 204.563 18.07C204.927 17.67 205.195 17.306 205.367 16.978C205.539 16.646 205.625 16.312 205.625 15.976C205.625 15.488 205.455 15.104 205.115 14.824C204.779 14.544 204.313 14.404 203.717 14.404C203.345 14.404 202.987 14.466 202.643 14.59C202.303 14.714 202.017 14.894 201.785 15.13L201.359 14.302C202.027 13.714 202.857 13.42 203.849 13.42C204.413 13.42 204.907 13.522 205.331 13.726C205.759 13.926 206.093 14.212 206.333 14.584C206.573 14.952 206.693 15.386 206.693 15.886C206.693 16.234 206.623 16.584 206.483 16.936C206.343 17.288 206.093 17.684 205.733 18.124C205.377 18.56 204.871 19.084 204.215 19.696L202.775 21.022H206.903V22H201.311ZM210.771 22.18C210.259 22.18 209.763 22.106 209.283 21.958C208.807 21.806 208.431 21.61 208.155 21.37L208.551 20.422C208.815 20.654 209.143 20.838 209.535 20.974C209.927 21.106 210.317 21.172 210.705 21.172C211.313 21.172 211.797 21.02 212.157 20.716C212.521 20.412 212.703 20.002 212.703 19.486C212.703 18.97 212.513 18.568 212.133 18.28C211.757 17.988 211.255 17.842 210.627 17.842C210.303 17.842 209.969 17.88 209.625 17.956L209.283 17.2L212.055 14.566H208.209V13.6H213.441V14.494L210.771 17.074C211.307 17.058 211.807 17.138 212.271 17.314C212.735 17.486 213.109 17.758 213.393 18.13C213.677 18.498 213.819 18.966 213.819 19.534C213.819 20.062 213.687 20.526 213.423 20.926C213.163 21.322 212.803 21.63 212.343 21.85C211.887 22.07 211.363 22.18 210.771 22.18Z" fill="white"/>
<path d="M192 55.5V39C192 34.0294 187.971 30 183 30V30C178.029 30 174 34.0294 174 39V55.5" stroke="#E5FF5D"/>
<rect x="178.5" y="63.5" width="9" height="9" rx="4.5" fill="black" stroke="#E5FF5D"/>
<path d="M24.6667 87C24.6667 88.4728 23.4728 89.6667 22 89.6667C20.5272 89.6667 19.3333 88.4728 19.3333 87C19.3333 85.5272 20.5272 84.3333 22 84.3333C23.4728 84.3333 24.6667 85.5272 24.6667 87ZM134 116.5H63.6277V115.5H134V116.5ZM40.2732 106.601L21.6407 87.3477L22.3593 86.6523L40.9918 105.906L40.2732 106.601ZM63.6277 116.5C54.8234 116.5 46.3959 112.928 40.2732 106.601L40.9918 105.906C46.9261 112.038 55.0943 115.5 63.6277 115.5V116.5Z" fill="white" fill-opacity="0.07"/>
<path d="M62.6667 128C62.6667 129.473 61.4728 130.667 60 130.667C58.5272 130.667 57.3333 129.473 57.3333 128C57.3333 126.527 58.5272 125.333 60 125.333C61.4728 125.333 62.6667 126.527 62.6667 128ZM134 128.5H60V127.5H134V128.5Z" fill="#E5FF5D"/>
<path d="M24.6667 165C24.6667 166.473 23.4728 167.667 22 167.667C20.5272 167.667 19.3333 166.473 19.3333 165C19.3333 163.527 20.5272 162.333 22 162.333C23.4728 162.333 24.6667 163.527 24.6667 165ZM134 143.5H57.1963V142.5H134V143.5ZM34.8707 152.778L22.3544 165.353L21.6456 164.647L34.1619 152.073L34.8707 152.778ZM57.1963 143.5C48.8166 143.5 40.7822 146.839 34.8707 152.778L34.1619 152.073C40.2611 145.945 48.5506 142.5 57.1963 142.5V143.5Z" fill="white" fill-opacity="0.07"/>
<path d="M49.6667 71C49.6667 72.4728 48.4728 73.6667 47 73.6667C45.5272 73.6667 44.3333 72.4728 44.3333 71C44.3333 69.5272 45.5272 68.3333 47 68.3333C48.4728 68.3333 49.6667 69.5272 49.6667 71ZM59.0776 82.8457L59.4277 82.4887L59.0776 82.8457ZM47.3501 70.643L59.4277 82.4887L58.7275 83.2026L46.6499 71.357L47.3501 70.643ZM81.4846 91.5H134V92.5H81.4846V91.5ZM59.4277 82.4887C65.3166 88.2645 73.236 91.5 81.4846 91.5V92.5C72.9742 92.5 64.8033 89.1618 58.7275 83.2026L59.4277 82.4887Z" fill="white" fill-opacity="0.07"/>
<path d="M49.6667 85C49.6667 86.4728 48.4728 87.6667 47 87.6667C45.5272 87.6667 44.3333 86.4728 44.3333 85C44.3333 83.5272 45.5272 82.3333 47 82.3333C48.4728 82.3333 49.6667 83.5272 49.6667 85ZM134 104.5H78.8631V103.5H134V104.5ZM55.3976 94.4861L46.639 85.3459L47.361 84.6541L56.1196 93.7942L55.3976 94.4861ZM78.8631 104.5C70.0033 104.5 61.5275 100.883 55.3976 94.4861L56.1196 93.7942C62.0609 99.9942 70.2759 103.5 78.8631 103.5V104.5Z" fill="white" fill-opacity="0.07"/>
<path d="M330.333 91C330.333 92.4728 331.527 93.6667 333 93.6667C334.473 93.6667 335.667 92.4728 335.667 91C335.667 89.5272 334.473 88.3333 333 88.3333C331.527 88.3333 330.333 89.5272 330.333 91ZM232 116.5H294.552V115.5H232V116.5ZM317.391 107.121L333.351 91.3557L332.649 90.6443L316.689 106.41L317.391 107.121ZM294.552 116.5C303.102 116.5 311.308 113.13 317.391 107.121L316.689 106.41C310.793 112.234 302.839 115.5 294.552 115.5V116.5Z" fill="white" fill-opacity="0.07"/>
<path d="M296.333 127C296.333 128.473 297.527 129.667 299 129.667C300.473 129.667 301.667 128.473 301.667 127C301.667 125.527 300.473 124.333 299 124.333C297.527 124.333 296.333 125.527 296.333 127ZM232 127.5H299V126.5H232V127.5Z" fill="white" fill-opacity="0.07"/>
<path d="M330.333 158C330.333 159.473 331.527 160.667 333 160.667C334.473 160.667 335.667 159.473 335.667 158C335.667 156.527 334.473 155.333 333 155.333C331.527 155.333 330.333 156.527 330.333 158ZM322.65 147.517L322.294 147.868L322.65 147.517ZM232 138.5H299.879V137.5H232V138.5ZM322.294 147.868L332.644 158.351L333.356 157.649L323.005 147.166L322.294 147.868ZM299.879 138.5C308.302 138.5 316.375 141.874 322.294 147.868L323.005 147.166C316.899 140.981 308.57 137.5 299.879 137.5V138.5Z" fill="white" fill-opacity="0.07"/>
<path d="M307.333 75C307.333 76.4728 308.527 77.6667 310 77.6667C311.473 77.6667 312.667 76.4728 312.667 75C312.667 73.5272 311.473 72.3333 310 72.3333C308.527 72.3333 307.333 73.5272 307.333 75ZM300.156 84.7433L299.804 84.388L300.156 84.7433ZM309.648 74.6446L299.804 84.388L300.508 85.0987L310.352 75.3554L309.648 74.6446ZM277.645 93.5H232V94.5H277.645V93.5ZM299.804 84.388C293.907 90.2255 285.943 93.5 277.645 93.5V94.5C286.207 94.5 294.423 91.1216 300.508 85.0987L299.804 84.388Z" fill="#E5FF5D"/>
<path d="M307.333 88C307.333 89.4728 308.527 90.6667 310 90.6667C311.473 90.6667 312.667 89.4728 312.667 88C312.667 86.5272 311.473 85.3333 310 85.3333C308.527 85.3333 307.333 86.5272 307.333 88ZM303.122 95.1635L302.761 94.8172L303.122 95.1635ZM232 105.5H280.04V104.5H232V105.5ZM303.482 95.5098L310.361 88.3463L309.639 87.6537L302.761 94.8172L303.482 95.5098ZM280.04 105.5C288.888 105.5 297.354 101.892 303.482 95.5098L302.761 94.8172C296.821 101.003 288.616 104.5 280.04 104.5V105.5Z" fill="white" fill-opacity="0.07"/>
<path d="M131 202L146.741 192.765C155.102 187.859 168.815 188.777 177.959 192V192C184.635 194.352 188.531 192.776 195.003 189.909C200.811 187.336 207.773 184.291 211.938 182.606C220.08 179.31 236 175 236 175" stroke="url(#paint1_linear_2_1048)"/>
<path d="M131 187.053L155.791 190.556C158.368 190.92 160.429 191.873 163.004 191.502V191.502C177.245 189.452 192.539 186.585 205.153 193.505C208.163 195.156 210.941 195.957 212.997 195.158C221.208 191.965 238 197 238 197" stroke="url(#paint2_linear_2_1048)"/>
</g>
<defs>
<filter id="filter0_d_2_1048" x="70" y="9" width="226" height="226" filterUnits="userSpaceOnUse" color-interpolation-filters="sRGB">
<feFlood flood-opacity="0" result="BackgroundImageFix"/>
<feColorMatrix in="SourceAlpha" type="matrix" values="0 0 0 0 0 0 0 0 0 0 0 0 0 0 0 0 0 0 127 0" result="hardAlpha"/>
<feOffset dy="4"/>
<feGaussianBlur stdDeviation="32"/>
<feComposite in2="hardAlpha" operator="out"/>
<feColorMatrix type="matrix" values="0 0 0 0 0.898039 0 0 0 0 1 0 0 0 0 0.364706 0 0 0 0.3 0"/>
<feBlend mode="normal" in2="BackgroundImageFix" result="effect1_dropShadow_2_1048"/>
<feBlend mode="normal" in="SourceGraphic" in2="effect1_dropShadow_2_1048" result="shape"/>
</filter>
<linearGradient id="paint0_linear_2_1048" x1="183" y1="69" x2="183" y2="167" gradientUnits="userSpaceOnUse">
<stop stop-color="white"/>
<stop offset="1" stop-color="#737373"/>
</linearGradient>
<linearGradient id="paint1_linear_2_1048" x1="131" y1="188.5" x2="236" y2="188.5" gradientUnits="userSpaceOnUse">
<stop stop-color="#E5FF5D" stop-opacity="0"/>
<stop offset="0.545" stop-color="#E5FF5D"/>
<stop offset="1" stop-color="#E5FF5D" stop-opacity="0"/>
</linearGradient>
<linearGradient id="paint2_linear_2_1048" x1="131" y1="186.5" x2="238" y2="186.5" gradientUnits="userSpaceOnUse">
<stop stop-color="#5DFFFF" stop-opacity="0"/>
<stop offset="0.46" stop-color="#5DFFFF"/>
<stop offset="1" stop-color="#5DFFFF" stop-opacity="0"/>
</linearGradient>
<clipPath id="clip0_2_1048">
<rect width="368" height="222" fill="white"/>
</clipPath>
</defs>
</svg>

<svg width="368" height="222" fill="none" xmlns="http://www.w3.org/2000/svg"><g clip-path="url(#a)"><g filter="url(#b)" shape-rendering="crispEdges"><path fill="url(#c)" fill-opacity=".1" d="M134 69h98v98h-98z"/><path stroke="#fff" stroke-opacity=".1" d="M134.5 69.5h97v97h-97z"/></g><path fill="#E5FF5D" d="M99 158h4v4h-4z"/><path fill="#fff" fill-opacity=".1" d="M107 158h4v4h-4z"/><path fill="#E5FF5D" d="M115 158h4v4h-4zm-16 8h4v4h-4z"/><path fill="#fff" fill-opacity=".1" d="M107 166h4v4h-4zm8 0h4v4h-4z"/><path fill="#E5FF5D" d="M99 174h4v4h-4zm8 0h4v4h-4z"/><path fill="#fff" fill-opacity=".1" d="M115 174h4v4h-4z"/><g opacity=".2" fill="#000"><path d="M191 116.5c0 4.142-3.582 7.5-8 7.5s-8-3.358-8-7.5c0-4.142 3.582-7.5 8-7.5s8 3.358 8 7.5Z"/><path d="M180.12 120.7c0-1.491 1.289-2.7 2.88-2.7s2.88 1.209 2.88 2.7v6.6c0 1.491-1.289 2.7-2.88 2.7s-2.88-1.209-2.88-2.7v-6.6Z"/></g><rect x="167.5" y="52.5" width="31" height="31" rx="15.5" fill="#E5FF5D" stroke="#E5FF5D"/><path opacity=".5" d="M153.66 22.18c-.608 0-1.136-.112-1.584-.336a2.568 2.568 0 0 1-1.032-.906c-.24-.38-.36-.806-.36-1.278 0-.508.136-.934.408-1.278.276-.344.66-.612 1.152-.804a2.154 2.154 0 0 1-.888-.672c-.256-.316-.384-.714-.384-1.194 0-.44.116-.832.348-1.176.232-.348.552-.62.96-.816.408-.2.874-.3 1.398-.3.532 0 1.002.1 1.41.3.412.2.734.474.966.822.236.344.354.734.354 1.17 0 .48-.128.878-.384 1.194-.256.316-.554.54-.894.672.464.192.836.462 1.116.81.28.344.42.768.42 1.272 0 .472-.124.898-.372 1.278s-.598.682-1.05.906c-.448.224-.976.336-1.584.336Zm.03-5.082c.484 0 .882-.12 1.194-.36.312-.244.468-.572.468-.984 0-.408-.154-.75-.462-1.026-.304-.276-.704-.414-1.2-.414s-.898.138-1.206.414a1.322 1.322 0 0 0-.462 1.026c0 .412.156.74.468.984.312.24.712.36 1.2.36Zm-.012 4.116c.332 0 .64-.058.924-.174a1.59 1.59 0 0 0 .69-.534c.176-.236.264-.528.264-.876 0-.516-.182-.91-.546-1.182-.364-.272-.808-.408-1.332-.408-.544 0-.994.138-1.35.414-.356.272-.534.664-.534 1.176 0 .348.086.64.258.876.172.236.4.414.684.534.288.116.602.174.942.174Zm5.301.966-.396-.888c.856-.092 1.578-.312 2.166-.66.592-.348 1.058-.774 1.398-1.278a4.449 4.449 0 0 0 .69-1.608 2.494 2.494 0 0 1-.882.798c-.36.196-.758.294-1.194.294-.524 0-.998-.114-1.422-.342a2.612 2.612 0 0 1-1.008-.948 2.64 2.64 0 0 1-.366-1.392c0-.516.128-.98.384-1.392.26-.412.618-.738 1.074-.978.456-.244.978-.366 1.566-.366.608 0 1.148.132 1.62.396a2.77 2.77 0 0 1 1.116 1.152c.272.5.408 1.11.408 1.83 0 .716-.13 1.378-.39 1.986a5.15 5.15 0 0 1-1.08 1.614 5.91 5.91 0 0 1-1.638 1.158 7.05 7.05 0 0 1-2.046.624Zm2.01-4.296c.36 0 .684-.076.972-.228.292-.152.522-.36.69-.624a1.63 1.63 0 0 0 .252-.894c0-.504-.18-.918-.54-1.242-.356-.328-.814-.492-1.374-.492-.556 0-1.014.164-1.374.492-.36.324-.54.738-.54 1.242 0 .332.084.63.252.894.172.264.402.472.69.624.288.152.612.228.972.228Zm5.355 4.296a.863.863 0 0 1-.6-.222.747.747 0 0 1-.246-.582c0-.24.082-.434.246-.582a.863.863 0 0 1 .6-.222c.232 0 .43.074.594.222a.738.738 0 0 1 .252.582c0 .24-.084.434-.252.582a.855.855 0 0 1-.594.222Zm3.166-.18v-7.236l-2.262.84-.294-.87 3.528-1.314h.084V22h-1.056Zm6.898 0v-1.776h-4.242v-.87l3.126-5.754h1.176l-3.102 5.664h3.042v-1.938h.996v1.938h1.35v.96h-1.35V22h-.996Zm4.315.18a.863.863 0 0 1-.6-.222.747.747 0 0 1-.246-.582c0-.24.082-.434.246-.582a.863.863 0 0 1 .6-.222c.232 0 .43.074.594.222a.738.738 0 0 1 .252.582c0 .24-.084.434-.252.582a.855.855 0 0 1-.594.222Zm3.166-.18v-7.236l-2.262.84-.294-.87 3.528-1.314h.084V22h-1.056Zm3.183 0v-.846l1.83-1.686a24.152 24.152 0 0 0 1.422-1.398c.364-.4.632-.764.804-1.092a2.16 2.16 0 0 0 .258-1.002c0-.488-.17-.872-.51-1.152-.336-.28-.802-.42-1.398-.42-.372 0-.73.062-1.074.186-.34.124-.626.304-.858.54l-.426-.828c.668-.588 1.498-.882 2.49-.882.564 0 1.058.102 1.482.306.428.2.762.486 1.002.858.24.368.36.802.36 1.302 0 .348-.07.698-.21 1.05-.14.352-.39.748-.75 1.188-.356.436-.862.96-1.518 1.572l-1.44 1.326h4.128V22h-5.592Zm7.889.18a.863.863 0 0 1-.6-.222.747.747 0 0 1-.246-.582c0-.24.082-.434.246-.582a.863.863 0 0 1 .6-.222c.232 0 .43.074.594.222a.738.738 0 0 1 .252.582c0 .24-.084.434-.252.582a.855.855 0 0 1-.594.222Zm3.166-.18v-7.236l-2.262.84-.294-.87 3.528-1.314h.084V22h-1.056Zm3.184 0v-.846l1.83-1.686a24.152 24.152 0 0 0 1.422-1.398c.364-.4.632-.764.804-1.092a2.16 2.16 0 0 0 .258-1.002c0-.488-.17-.872-.51-1.152-.336-.28-.802-.42-1.398-.42-.372 0-.73.062-1.074.186-.34.124-.626.304-.858.54l-.426-.828c.668-.588 1.498-.882 2.49-.882.564 0 1.058.102 1.482.306.428.2.762.486 1.002.858.24.368.36.802.36 1.302 0 .348-.07.698-.21 1.05-.14.352-.39.748-.75 1.188-.356.436-.862.96-1.518 1.572l-1.44 1.326h4.128V22h-5.592Zm9.46.18a5.021 5.021 0 0 1-1.488-.222c-.476-.152-.852-.348-1.128-.588l.396-.948c.264.232.592.416.984.552.392.132.782.198 1.17.198.608 0 1.092-.152 1.452-.456.364-.304.546-.714.546-1.23s-.19-.918-.57-1.206c-.376-.292-.878-.438-1.506-.438a4.64 4.64 0 0 0-1.002.114l-.342-.756 2.772-2.634h-3.846V13.6h5.232v.894l-2.67 2.58a3.864 3.864 0 0 1 1.5.24c.464.172.838.444 1.122.816.284.368.426.836.426 1.404 0 .528-.132.992-.396 1.392-.26.396-.62.704-1.08.924-.456.22-.98.33-1.572.33Z" fill="#fff"/><path d="M192 55.5V39a9 9 0 0 0-9-9 9 9 0 0 0-9 9v16.5" stroke="#E5FF5D"/><rect x="178.5" y="63.5" width="9" height="9" rx="4.5" fill="#000" stroke="#E5FF5D"/><path d="M24.667 87a2.667 2.667 0 1 1-5.334 0 2.667 2.667 0 0 1 5.334 0ZM134 116.5H63.628v-1H134v1Zm-93.727-9.899L21.641 87.348l.718-.696 18.633 19.254-.719.695Zm23.355 9.899a32.5 32.5 0 0 1-23.355-9.899l.719-.695a31.5 31.5 0 0 0 22.636 9.594v1Z" fill="#fff" fill-opacity=".07"/><path d="M62.667 128a2.667 2.667 0 1 1-5.334 0 2.667 2.667 0 0 1 5.334 0Zm71.333.5H60v-1h74v1Z" fill="#E5FF5D"/><path d="M24.667 165a2.667 2.667 0 1 1-5.334 0 2.667 2.667 0 0 1 5.334 0ZM134 143.5H57.196v-1H134v1Zm-99.13 9.278-12.516 12.575-.708-.706 12.516-12.574.709.705Zm22.326-9.278a31.5 31.5 0 0 0-22.325 9.278l-.71-.705a32.5 32.5 0 0 1 23.035-9.573v1ZM49.667 71a2.667 2.667 0 1 1-5.334 0 2.667 2.667 0 0 1 5.334 0Zm9.41 11.846.35-.357-.35.357ZM47.35 70.643l12.078 11.846-.7.714L46.65 71.357l.7-.714ZM81.485 91.5H134v1H81.485v-1Zm-22.057-9.011A31.5 31.5 0 0 0 81.485 91.5v1a32.5 32.5 0 0 1-22.758-9.297l.7-.714ZM49.667 85a2.667 2.667 0 1 1-5.334 0 2.667 2.667 0 0 1 5.334 0ZM134 104.5H78.863v-1H134v1ZM55.398 94.486l-8.759-9.14.722-.692 8.759 9.14-.722.692ZM78.863 104.5a32.5 32.5 0 0 1-23.465-10.014l.722-.692a31.5 31.5 0 0 0 22.743 9.706v1ZM330.333 91a2.667 2.667 0 1 0 5.334 0 2.667 2.667 0 0 0-5.334 0ZM232 116.5h62.552v-1H232v1Zm85.391-9.379 15.96-15.765-.702-.712-15.96 15.766.702.711Zm-22.839 9.379a32.5 32.5 0 0 0 22.839-9.379l-.702-.711a31.501 31.501 0 0 1-22.137 9.09v1Zm1.781 10.5a2.667 2.667 0 1 0 5.334 0 2.667 2.667 0 0 0-5.334 0Zm-64.333.5h67v-1h-67v1Zm98.333 30.5a2.667 2.667 0 1 0 5.334 0 2.667 2.667 0 0 0-5.334 0Zm-7.683-10.483-.356.351.356-.351ZM232 138.5h67.879v-1H232v1Zm90.294 9.368 10.35 10.483.712-.702-10.351-10.483-.711.702Zm-22.415-9.368a31.503 31.503 0 0 1 22.415 9.368l.711-.702a32.497 32.497 0 0 0-23.126-9.666v1Z" fill="#fff" fill-opacity=".07"/><path d="M307.333 75a2.667 2.667 0 1 0 5.334 0 2.667 2.667 0 0 0-5.334 0Zm-7.177 9.743-.352-.355.352.355Zm9.492-10.098-9.844 9.743.704.71 9.844-9.743-.704-.71ZM277.645 93.5H232v1h45.645v-1Zm22.159-9.112a31.499 31.499 0 0 1-22.159 9.112v1a32.5 32.5 0 0 0 22.863-9.401l-.704-.711Z" fill="#E5FF5D"/><path d="M307.333 88a2.667 2.667 0 1 0 5.334 0 2.667 2.667 0 0 0-5.334 0Zm-4.211 7.163-.361-.346.361.347ZM232 105.5h48.04v-1H232v1Zm71.482-9.99 6.879-7.164-.722-.692-6.878 7.163.721.693Zm-23.442 9.99a32.5 32.5 0 0 0 23.442-9.99l-.721-.693a31.5 31.5 0 0 1-22.721 9.683v1Z" fill="#fff" fill-opacity=".07"/><path d="m131 202 15.741-9.235c8.361-4.906 22.074-3.988 31.218-.765 6.676 2.352 10.572.776 17.044-2.091 5.808-2.573 12.77-5.618 16.935-7.303C220.08 179.31 236 175 236 175" stroke="url(#d)"/><path d="m131 187.053 24.791 3.503c2.577.364 4.638 1.317 7.213.946 14.241-2.05 29.535-4.917 42.149 2.003 3.01 1.651 5.788 2.452 7.844 1.653C221.208 191.965 238 197 238 197" stroke="url(#e)"/></g><defs><linearGradient id="c" x1="183" y1="69" x2="183" y2="167" gradientUnits="userSpaceOnUse"><stop stop-color="#fff"/><stop offset="1" stop-color="#737373"/></linearGradient><linearGradient id="d" x1="131" y1="188.5" x2="236" y2="188.5" gradientUnits="userSpaceOnUse"><stop stop-color="#E5FF5D" stop-opacity="0"/><stop offset=".545" stop-color="#E5FF5D"/><stop offset="1" stop-color="#E5FF5D" stop-opacity="0"/></linearGradient><linearGradient id="e" x1="131" y1="186.5" x2="238" y2="186.5" gradientUnits="userSpaceOnUse"><stop stop-color="#5DFFFF" stop-opacity="0"/><stop offset=".46" stop-color="#5DFFFF"/><stop offset="1" stop-color="#5DFFFF" stop-opacity="0"/></linearGradient><clipPath id="a"><path fill="#fff" d="M0 0h368v222H0z"/></clipPath><filter id="b" x="70" y="9" width="226" height="226" filterUnits="userSpaceOnUse" color-interpolation-filters="sRGB"><feFlood flood-opacity="0" result="BackgroundImageFix"/><feColorMatrix in="SourceAlpha" values="0 0 0 0 0 0 0 0 0 0 0 0 0 0 0 0 0 0 127 0" result="hardAlpha"/><feOffset dy="4"/><feGaussianBlur stdDeviation="32"/><feComposite in2="hardAlpha" operator="out"/><feColorMatrix values="0 0 0 0 0.898039 0 0 0 0 1 0 0 0 0 0.364706 0 0 0 0.3 0"/><feBlend in2="BackgroundImageFix" result="effect1_dropShadow_2_1048"/><feBlend in="SourceGraphic" in2="effect1_dropShadow_2_1048" result="shape"/></filter></defs></svg>
